X:1
T: Michael A. MacLean's Reel
C:Dan R. MacDonald
R:Reel
Q: 232
K:D
M:4/4
L:1/8
|:G|F2 AF DB AF|EB, B,1/2B,1/2B, DB, A,G|F2 AF DB AF|GA Bc dD DG|
F2 AF DB AF|EB, B,1/2B,1/2B, DB, B,D|CE DF EG FA|GB Ag fd d:|
|:g|f2 af db ag|fd d1/2d1/2d eE Gg|f2 af df af|ef ge fd dg|
f2 af db ag|fd d1/2d1/2d eE Gg|fd ec dA BF|EF GE FD D:|
